src/components/common/icons/lastenvaunut.svg

<svg height="59" viewBox="0 0 58 59" width="58" xmlns="http://www.w3.org/2000/svg"><g fill="#010202" fill-rule="evenodd"><path d="m23.87425 47.0190811c-3.1706667 0-5.7403889 2.5864865-5.7403889 5.7778378 0 3.1913514 2.5697222 5.7778379 5.7403889 5.7778379s5.7403889-2.5864865 5.7403889-5.7778379c0-3.1913513-2.5697222-5.7778378-5.7403889-5.7778378"/><path d="m44.3152222 47.0190811c-3.1722778 0-5.7403889 2.5864865-5.7403889 5.7778378 0 3.1913514 2.5681111 5.7778379 5.7403889 5.7778379 3.1706667 0 5.7403889-2.5864865 5.7403889-5.7778379 0-3.1913513-2.5697222-5.7778378-5.7403889-5.7778378"/><path d="m57.3048056 28.2058378h.0451111v-1.1318919-3.1718918-1.1108109c0-2.0513513-.9296111-3.9437837-2.5503889-5.1827027l-2.0670556-1.5843243c-.3270555-.2497297-.4962222-.6632432-.4398333-1.0767567l.2642222-1.9394595c.2738889-2.0108108-.3270555-4.03945946-1.6497778-5.56702703-1.3211111-1.52432432-3.2238333-2.39837838-5.22-2.39837838-.319 0-.6412222.02108109-.9602222.06648649l-1.9220555.26756757c-.4011667.05513513-.8087778-.11675676-1.0536667-.44432433l-1.566-2.0854054c-1.2308889-1.63783784-3.1062222-2.58-5.1491111-2.58h-5.4423334v23.63513518h-14.181l-1.4822222-5.2816217c-1.305-4.5097297-5.47455553-7.6605405-10.14033331-7.6605405h-2.93383333v4.3135135h2.93383333c2.77272222 0 5.25061111 1.872973 6.02072222 4.5356757l3.59438889 12.8075675c1.6465556 5.8670271 7.0276667 9.9632433 13.0854444 9.9632433h15.4521667c8.1167778 0 14.7835556-6.3518919 15.3619445-14.3740541zm-23.4255556-23.62378375h1.16c.6831111 0 1.3130556.31621622 1.7271111.86594595l1.566 2.08702703c1.0166111 1.35567567 2.6325556 2.16648648 4.3177778 2.16648648.2465 0 .4962222-.01945946.7395-.05189189l1.9236667-.26756757c.8909444-.12486486 1.7738333.21243244 2.3635.89351355.5171666.5983783.7411111 1.3572973.6347777 2.1454054l-.2642222 1.9427027c-.2658333 1.9524324.5348889 3.9016216 2.0912222 5.0935135l2.0654445 1.5827027c.5461666.42.8603333 1.0572973.8603333 1.7513513v1.1010811h-19.1851111zm8.0636111 33.68432435h-15.4521667c-4.1486111 0-7.8332222-2.8054054-8.961-6.8237838l-.9054444-3.2254054h36.3821111c-.5703333 5.6351351-5.3134444 10.0491892-11.0635 10.0491892z"/></g></svg>

<?xml version="1.0" encoding="UTF-8"?>
<svg width="58px" height="59px" viewBox="0 0 58 59" version="1.1" xmlns="http://www.w3.org/2000/svg" xmlns:xlink="http://www.w3.org/1999/xlink">
    <!-- Generator: Sketch 52.5 (67469) - http://www.bohemiancoding.com/sketch -->
    <title>Icons/.lastenvaunut</title>
    <desc>Created with Sketch.</desc>
    <g id="Vapaaehtoisalusta-Layouts" stroke="none" stroke-width="1" fill="none" fill-rule="evenodd">
        <g id="HKI-Ikonit" transform="translate(-1124.000000, -376.000000)" fill="#010202">
            <g id="Icons/.lastenvaunut" transform="translate(1124.000000, 376.000000)">
                <path d="M23.87425,47.0190811 C20.7035833,47.0190811 18.1338611,49.6055676 18.1338611,52.7969189 C18.1338611,55.9882703 20.7035833,58.5747568 23.87425,58.5747568 C27.0449167,58.5747568 29.6146389,55.9882703 29.6146389,52.7969189 C29.6146389,49.6055676 27.0449167,47.0190811 23.87425,47.0190811" id="Fill-61"></path>
                <path d="M44.3152222,47.0190811 C41.1429444,47.0190811 38.5748333,49.6055676 38.5748333,52.7969189 C38.5748333,55.9882703 41.1429444,58.5747568 44.3152222,58.5747568 C47.4858889,58.5747568 50.0556111,55.9882703 50.0556111,52.7969189 C50.0556111,49.6055676 47.4858889,47.0190811 44.3152222,47.0190811" id="Fill-62"></path>
                <path d="M57.3048056,28.2058378 L57.3499167,28.2058378 L57.3499167,27.0739459 L57.3499167,23.9020541 L57.3499167,22.7912432 C57.3499167,20.7398919 56.4203056,18.8474595 54.7995278,17.6085405 L52.7324722,16.0242162 C52.4054167,15.7744865 52.23625,15.360973 52.2926389,14.9474595 L52.5568611,13.008 C52.83075,10.9971892 52.2298056,8.96854054 50.9070833,7.44097297 C49.5859722,5.91664865 47.68325,5.04259459 45.6870833,5.04259459 C45.3680833,5.04259459 45.0458611,5.06367568 44.7268611,5.10908108 L42.8048056,5.37664865 C42.4036389,5.43178378 41.9960278,5.25989189 41.7511389,4.93232432 L40.1851389,2.84691892 C38.95425,1.20908108 37.0789167,0.266918919 35.0360278,0.266918919 L29.5936944,0.266918919 L29.5936944,23.9020541 L15.4126944,23.9020541 L13.9304722,18.6204324 C12.6254722,14.1107027 8.45591667,10.9598919 3.79013889,10.9598919 L0.856305556,10.9598919 L0.856305556,15.2734054 L3.79013889,15.2734054 C6.56286111,15.2734054 9.04075,17.1463784 9.81086111,19.8090811 L13.40525,32.6166486 C15.0518056,38.4836757 20.4329167,42.5798919 26.4906944,42.5798919 L41.9428611,42.5798919 C50.0596389,42.5798919 56.7264167,36.228 57.3048056,28.2058378 Z M33.87925,4.58205405 L35.03925,4.58205405 C35.7223611,4.58205405 36.3523056,4.89827027 36.7663611,5.448 L38.3323611,7.53502703 C39.3489722,8.8907027 40.9649167,9.70151351 42.6501389,9.70151351 C42.8966389,9.70151351 43.1463611,9.68205405 43.3896389,9.64962162 L45.3133056,9.38205405 C46.20425,9.25718919 47.0871389,9.59448649 47.6768056,10.2755676 C48.1939722,10.8739459 48.4179167,11.6328649 48.3115833,12.420973 L48.0473611,14.3636757 C47.7815278,16.3161081 48.58225,18.2652973 50.1385833,19.4571892 L52.2040278,21.0398919 C52.7501944,21.4598919 53.0643611,22.0971892 53.0643611,22.7912432 L53.0643611,23.8923243 L33.87925,23.8923243 L33.87925,4.58205405 Z M41.9428611,38.2663784 L26.4906944,38.2663784 C22.3420833,38.2663784 18.6574722,35.460973 17.5296944,31.4425946 L16.62425,28.2171892 L53.0063611,28.2171892 C52.4360278,33.8523243 47.6929167,38.2663784 41.9428611,38.2663784 Z" id="Fill-63"></path>
            </g>
        </g>
    </g>
</svg>
